X: 2021
T: Night In That Land
B: steve tunes
M:3/4
Q: 1/4=100
K:Gmajor
V:1 
D2|"G"B2 BA B<d|"C"E4 cB|"D"A3 G B<G|"D"A3 D GF|
"Em"E2 e2 d<A|"G"B3 D GF|"C"E2 c2 A<G|"D"A4 D2|
"G"B2 BA B<d|"C"E4 cB|"D"A3 G B<G|"D"A3 D GF|
"Em"E2 e2 d<A|"G"B3 D GF|"C"E2 c2 A<G|"D"A6|
"C"cB "Em"GA "G"BG|("D"A4A) D|"C"cB GA Bc|"D"d6|
"C"cB "Em"GA "G"BG|"D"A3 D GF|"C"E3 D E<G|"D"A4 D2||
% abcbook-tune_id 62a420d091ad16bd5894e57f


% abcbook-boost 0
% abcbook-tablature 
% abcbook-transpose 
% abcbook-lastupdated 1656738530675
% abcbook-soundfonts 
% abcbook-repeats 3


